packages/vibrant-icons/assets/icons/ToteBagPlay/Regular.svg

<svg fill="none" height="24" viewBox="0 0 24 24" width="24" xmlns="http://www.w3.org/2000/svg"><g fill="#0c0c0c"><path d="m9.5 10.8.2 6.7 6.05-3.25z"/><path clip-rule="evenodd" d="m22.5707 6.84102c.024-.29132-.206-.54097-.4983-.54097h-5.4727v-1.02501c0-.03858-.0005-.07705-.0015-.11541-.0614-2.41438-2.0446-4.359581-4.4735-4.359581h-.25c-2.42275 0-4.40205 1.935371-4.47301 4.341271-.00131.04442-.00197.089-.00197.13372v1.02501h-5.47268c-.29231 0-.52228.24966-.49832.54098l1.19675 14.54997c.02133.2594.23806.459.49832.459h17.75231c.2603 0 .477-.1996.4983-.459zm-17.881 12.80898-.9171-11.14996h16.4543l-.9167 11.14996zm4.91002-14.37705c.00002-.01887.00027-.03768.00075-.05644.01034-.40763.12841-.78894.32675-1.11647.39898-.6588 1.12258-1.09999 1.94748-1.09999h.25c.8249 0 1.5485.44119 1.9475 1.09999.1936.31965.3107.69053.3258 1.0871.0011.02848.0017.05708.0017.08581v1.0271h-4.79998z" fill-rule="evenodd"/></g></svg>

<svg xmlns="http://www.w3.org/2000/svg" width="24" height="24" fill="none"><g fill="#0c0c0c"><path d="m9.5 10.8.2 6.7 6.05-3.25z"/><path fill-rule="evenodd" d="M22.57 6.841a.5.5 0 0 0-.498-.54H16.6V5.274q0-.058-.002-.115A4.48 4.48 0 0 0 12.125.8h-.25A4.48 4.48 0 0 0 7.4 5.275V6.3H1.927a.5.5 0 0 0-.498.541l1.196 14.55a.5.5 0 0 0 .499.459h17.752a.5.5 0 0 0 .498-.459zM4.69 19.65 3.773 8.5h16.454l-.917 11.15zM9.6 5.273v-.056A2.276 2.276 0 0 1 11.874 3h.25A2.276 2.276 0 0 1 14.4 5.272V6.3H9.6z" clip-rule="evenodd"/></g></svg>
